X: 2176
T: Şevk`efzâdır Efendim
C: Ahmet Avni Konuk
O: Turkey
F: http://compmusic.upf.edu/node/140
N: sevkefza--kupe--aksaksemai--sevkefza--ahmet_avni_konuk
N: makam= sevkefza
N: form= kupe
N: usul= aksaksemai = 10/8
M: 10/8
L: 1/16
K: C _B _7/8d  
Q: 1/4=102
%%MIDI tuningsystem comma53
f4 g2g_7/8a gf_1/4b2 aggf fef2  | \
w:  Şevk_ ı  Ef *  *  *  *  *  *  zâ   | 
f4 _7/8a2g2 f2e2 d2ef edc2  | 
w:  dır  e fen *  *  *  dim   | 
cdc2 d2e2 def2 efg2 _7/8a2_1/4b2  | \
w:  il *  *  ti fâ *  *  *  *  *  tın   | 
_1/4b=d'c'2 b2c'3/2b/ _7/8agag fef4z2  | 
w:  â *  *  şı ka    | 
f4 _7/8a2a2 agg2 gfag fedc  | c4 d2c2 cBAB cBA2 B2z2  | 
w:  İh ti yâ *  *  *  *  *  cı   |  â şı kın  *  *  *  *  *  *  yok   | 
B4 B2B2 A2A2 G2c3/2_1/4B/ _7/8AGF2  | \
w:  baş ka  tür *  *  *  lü   | 
GBA2 G2GF EFEF GEF4z2  | 
w:  sâ *  *  i ka    | 
|


